X:36
T:Furry Day Carol
O:England
M:4/4
L:1/8
K:G
"C" G2 | "G" G2 G>A G2 "C"Bc | "D" d2 "G"d>e "D" d2  "Am" ef | "G"g2 d2 "A5" de "D" dc | "G" B4 G2 "G" D2 | "C" G2 "G" G>A "C" G2 "G" Bc |
"D7" d2 "Em7" d>e "D" d2 "Am" ef | "G" g2 "D" d2 "Em7" de "D" dc | "G" B4 G2 z d | "C" e2 e2 e2 dc | "G" Bc de d2 ef |
"G" g2 "D" d2 "Em7" de "D" dc | "G" B4 G2 z d | "C" e2 e2 e2 dc | "G" Bc de d2 "D" ef | "Em" g2 "D" d2 "C" de "D" dc | "G" B4 G2 |]
%
%
